X:064
T:Hornpipe TS.064
M:C|
L:1/8
Q:1/2=90
S:Thomas Sands’ MS,1810,Lincolnshire
R:.hornpipe
O:England;Lincolnshire
Z:vmp.Ruairidh Greig, 2011
K:G
D2|G2G2GABc|dBge dBAG|cBce cBAG|FGABA3B|
cBcd efge|dBAG FAFD|GBAc BdAc|B2G2G2″rest omitted”:|
|:Bc|dBGB defg|dcBcB2z|cBcd efge|afddd3B|
cBcd efge|dBAG FAFD|GBAc BdAc|B2G2G2:|]

